public/assets/icons/file-audio.svg

<svg width="45" height="45" viewBox="0 0 45 45" fill="none" xmlns="http://www.w3.org/2000/svg">
<path d="M38.9997 10.1369V30.926C38.9997 34.5687 36.0377 37.5307 32.395 37.5307C28.7707 37.5307 25.7903 34.5687 25.7903 30.926C25.7903 27.3017 28.7707 24.3397 32.395 24.3397C33.9404 24.3397 35.3202 24.8732 36.4425 25.7563V14.8098L19.4984 19.63V34.4767C19.4984 38.1194 16.518 41.0814 12.8937 41.0814C9.25105 41.0814 6.28906 38.1194 6.28906 34.4767C6.28906 30.8524 9.25105 27.8904 12.8937 27.8904C14.4207 27.8904 15.8005 28.4239 16.9228 29.2886V13.0253C16.9228 10.3209 18.5602 8.22355 21.1542 7.52444L31.7879 4.61765C33.9404 4.02893 35.7618 4.2313 37.0496 5.22476C38.3558 6.19983 38.9997 7.8556 38.9997 10.1369Z" fill="#3DD9B3"/>
</svg>

<svg xmlns="http://www.w3.org/2000/svg" width="45" height="45" fill="none"><path fill="#3DD9B3" d="M39 10.137v20.789a6.61 6.61 0 0 1-6.605 6.605c-3.624 0-6.605-2.962-6.605-6.605 0-3.624 2.98-6.586 6.605-6.586 1.545 0 2.925.533 4.047 1.416V14.81l-16.944 4.82v14.847c0 3.642-2.98 6.604-6.604 6.604a6.61 6.61 0 0 1-6.605-6.604c0-3.625 2.962-6.587 6.605-6.587 1.527 0 2.906.534 4.029 1.399V13.025c0-2.704 1.637-4.801 4.231-5.5l10.634-2.907c2.152-.59 3.974-.387 5.262.607C38.356 6.2 39 7.855 39 10.137"/></svg>
